flaticon/essential/search.svg

<svg xmlns="http://www.w3.org/2000/svg" width="32" height="32" viewBox="0 0 24 24">
    <path d="M 23.429688 23.234375 L 16.695312 16.230469 C 18.414062 14.507812 19.476562 12.132812 19.476562 9.515625 C 19.476562 4.269531 15.207031 0 9.960938 0 C 4.714844 0 0.445312 4.269531 0.445312 9.515625 C 0.445312 14.761719 4.714844 19.03125 9.960938 19.03125 C 12.265625 19.03125 14.378906 18.207031 16.027344 16.839844 L 22.773438 23.859375 C 22.863281 23.953125 22.980469 24 23.101562 24 C 23.214844 24 23.328125 23.957031 23.414062 23.875 C 23.597656 23.699219 23.601562 23.414062 23.429688 23.234375 Z M 9.960938 18.125 C 5.214844 18.125 1.351562 14.261719 1.351562 9.515625 C 1.351562 4.769531 5.214844 0.90625 9.960938 0.90625 C 14.707031 0.90625 18.570312 4.769531 18.570312 9.515625 C 18.570312 14.261719 14.707031 18.125 9.960938 18.125 Z M 9.960938 18.125"/>
</svg>

<svg xmlns="http://www.w3.org/2000/svg" width="32" height="32" viewBox="0 0 24 24">
    <path d="M23.43 23.234l-6.735-7.004a9.482 9.482 0 0 0 2.782-6.714C19.477 4.27 15.207 0 9.96 0S.445 4.27.445 9.516s4.27 9.515 9.516 9.515a9.471 9.471 0 0 0 6.066-2.191l6.746 7.02a.45.45 0 0 0 .641.015.452.452 0 0 0 .016-.64zM9.96 18.125c-4.745 0-8.608-3.863-8.608-8.61C1.352 4.77 5.215.907 9.96.907s8.61 3.864 8.61 8.61c0 4.746-3.864 8.609-8.61 8.609zm0 0"/>
</svg>
